public/avatar/shoe/79.svg

<svg xmlns:xlink="http://www.w3.org/1999/xlink" height="38.3" width="36.05" xmlns="http://www.w3.org/2000/svg"><use height="16.1" transform="translate(8.7 11.95)" width="23.05" xlink:href="#a"/><defs><g id="a"><path d="M1.4 10.85q-7.35 2.65-15.3.5l-.05-2.25q-.5-.8 1.1-3.1 1.7-2.4 4.4-4.55 7.05-5.7 12.05-2.9 4.05 4.95 3.55 9.2Q5.1 9.5 1.4 10.85" fill="#ba582e" fill-rule="evenodd" transform="translate(15.1 2.9)"/><path d="M1.55 6.35Q5.2 6 6.65 3.3q.75 1.8.5 4.45Q5.1 9.5 1.4 10.85q-7.35 2.65-15.3.5l-.05-2.25q-.4-.6.55-2.25.1 1.75 3.25 2.2 3.1.4 5.55-1 1.55-1.2 6.15-1.7" fill="#91341e" fill-rule="evenodd" transform="translate(15.1 2.9)"/><path d="M.9-.4q-4.8.15-5.5-.6-.75-.5 2.9-.9 3.6-.4 5.4.45Q5.6-.55.9-.4" fill="#623806" fill-rule="evenodd" transform="translate(15.1 2.9)"/><path d="M1.15 12.6q4.15 2.1 12.4 0 7.75-1.95 8.7-4.15" fill="none" stroke="#3c0c03" stroke-linecap="round" stroke-linejoin="round" stroke-width=".5"/><path d="M9.75 13.1q.2-3.15-3.3-4.2-2.9-.9-3.95-.25M14.9 2.5q3.1.1 4.3-.85.95.95 1.2 2.95-3.1.35-3.9 2.85-2.1 1.95-5.8 1.05-3.55-.75-3.15-2.3l4.25-3.8 3.1.1Z" fill="none" stroke="#3c0c03" stroke-linecap="round" stroke-linejoin="round" stroke-width=".5"/><path d="M4.5 6.4q.25.45 1.55.35 1.25-.1 1.5-.55M10.8 1v.85q0 .5 1 .55" fill="none" stroke="#3c0c03" stroke-linecap="round" stroke-linejoin="round" stroke-width=".5"/><path d="m3.45-1.65.85.4 3.15 6.6v2.1l-.05.1v.2l-.1.05v.15L6.05 9l-2.4 1.25h-.2l-.15.1q-.15.1-.25.15l-4.35 1.35-6 .85-3.65-.2-2.5-.65-.4-.25-.1-.05-.25-.3-.1-.2-.1-.55-.05-1.2-.15-.3v-.65l.2-.35.1-.45.6-.85 1.3-1.5L-6.85.05l1.9-1.25 2.75-1 1.4-.2 2.95.35 1.3.4Z" fill="none" stroke="#1c0601" stroke-linecap="round" stroke-linejoin="round" transform="translate(15.1 2.9)"/><path d="M7 5.65q1.7-.4 4.45 1.85M8.4 3.85q1.55-.35 4.5 1.85" fill="none" stroke="#000" stroke-linecap="round" stroke-linejoin="round" stroke-width=".75"/><path d="M-12.4 6.5q.5-.4 1.45 0l-.45 1.35-2.25.5q.6-1.65 1.25-1.85m2.25 0q2.5.75 3.1 1.5l-3.75-.5.65-1" fill="#fff" fill-rule="evenodd" transform="translate(15.1 2.9)"/></g></defs></svg>

<?xml version="1.0" encoding="UTF-8" standalone="no"?>
<svg xmlns:xlink="http://www.w3.org/1999/xlink" height="38.3px" width="36.05px" xmlns="http://www.w3.org/2000/svg">
  <g transform="matrix(1.0, 0.0, 0.0, 1.0, 23.8, 14.85)">
    <use height="16.1" transform="matrix(1.0, 0.0, 0.0, 1.0, -15.1, -2.9)" width="23.05" xlink:href="#shape0"/>
  </g>
  <defs>
    <g id="shape0" transform="matrix(1.0, 0.0, 0.0, 1.0, 15.1, 2.9)">
      <path d="M1.4 10.85 Q-5.95 13.5 -13.9 11.35 L-13.95 9.1 Q-14.45 8.3 -12.85 6.0 -11.15 3.6 -8.45 1.45 -1.4 -4.25 3.6 -1.45 7.65 3.5 7.15 7.75 5.1 9.5 1.4 10.85" fill="#ba582e" fill-rule="evenodd" stroke="none"/>
      <path d="M1.55 6.35 Q5.2 6.0 6.65 3.3 7.4 5.1 7.15 7.75 5.1 9.5 1.4 10.85 -5.95 13.5 -13.9 11.35 L-13.95 9.1 Q-14.35 8.5 -13.4 6.85 -13.3 8.6 -10.15 9.05 -7.05 9.45 -4.6 8.05 -3.05 6.85 1.55 6.35" fill="#91341e" fill-rule="evenodd" stroke="none"/>
      <path d="M0.9 -0.4 Q-3.9 -0.25 -4.6 -1.0 -5.35 -1.5 -1.7 -1.9 1.9 -2.3 3.7 -1.45 5.6 -0.55 0.9 -0.4" fill="#623806" fill-rule="evenodd" stroke="none"/>
      <path d="M-13.95 9.7 Q-9.8 11.8 -1.55 9.7 6.2 7.75 7.15 5.55" fill="none" stroke="#3c0c03" stroke-linecap="round" stroke-linejoin="round" stroke-width="0.5"/>
      <path d="M-5.35 10.2 Q-5.15 7.05 -8.65 6.0 -11.55 5.1 -12.6 5.75" fill="none" stroke="#3c0c03" stroke-linecap="round" stroke-linejoin="round" stroke-width="0.5"/>
      <path d="M-0.2 -0.4 Q2.9 -0.3 4.1 -1.25 5.05 -0.3 5.3 1.7 2.2 2.05 1.4 4.55 -0.7 6.5 -4.4 5.6 -7.95 4.85 -7.55 3.3 L-3.3 -0.5 -0.2 -0.4 Z" fill="none" stroke="#3c0c03" stroke-linecap="round" stroke-linejoin="round" stroke-width="0.5"/>
      <path d="M-10.6 3.5 Q-10.35 3.95 -9.05 3.85 -7.8 3.75 -7.55 3.3" fill="none" stroke="#3c0c03" stroke-linecap="round" stroke-linejoin="round" stroke-width="0.5"/>
      <path d="M-4.3 -1.9 L-4.3 -1.05 Q-4.3 -0.55 -3.3 -0.5" fill="none" stroke="#3c0c03" stroke-linecap="round" stroke-linejoin="round" stroke-width="0.5"/>
      <path d="M3.45 -1.65 L4.3 -1.25 7.45 5.35 7.45 7.45 7.4 7.55 7.4 7.75 7.3 7.8 7.3 7.95 6.05 9.0 3.65 10.25 3.45 10.25 3.3 10.35 Q3.15 10.45 3.05 10.5 L-1.3 11.85 -7.3 12.7 -10.95 12.5 -13.45 11.85 -13.85 11.6 -13.95 11.55 -14.2 11.25 -14.3 11.05 -14.4 10.5 -14.45 9.3 -14.6 9.0 -14.6 8.35 -14.4 8.0 -14.3 7.55 -13.7 6.7 -12.4 5.2 -6.85 0.05 -4.95 -1.2 -2.2 -2.2 -0.8 -2.4 2.15 -2.05 3.45 -1.65 Z" fill="none" stroke="#1c0601" stroke-linecap="round" stroke-linejoin="round" stroke-width="1.0"/>
      <path d="M-8.1 2.75 Q-6.4 2.35 -3.65 4.6" fill="none" stroke="#000000" stroke-linecap="round" stroke-linejoin="round" stroke-width="0.75"/>
      <path d="M-6.7 0.95 Q-5.15 0.6 -2.2 2.8" fill="none" stroke="#000000" stroke-linecap="round" stroke-linejoin="round" stroke-width="0.75"/>
      <path d="M-12.4 6.5 Q-11.9 6.1 -10.95 6.5 L-11.4 7.85 -13.65 8.35 Q-13.05 6.7 -12.4 6.5" fill="#ffffff" fill-rule="evenodd" stroke="none"/>
      <path d="M-10.15 6.5 Q-7.65 7.25 -7.05 8.0 L-10.8 7.5 -10.15 6.5" fill="#ffffff" fill-rule="evenodd" stroke="none"/>
    </g>
  </defs>
</svg>
